IMB-X-Files/The-Ambassadors-Assets/66156a5a50a9f04ce069a7a8_Frame 1321314805.svg

<svg fill="none" height="105" viewBox="0 0 104 105" width="104" xmlns="http://www.w3.org/2000/svg"><path d="m63.8234 16.8293-2.6221 29.6631-.0481.544h.5462.6405.2628l.149-.2165c11.8989-17.2833 18.4345-26.2116 21.4866-29.9906h19.2617v27.4159 39.8979h-26.7814v-23.6207-.5h-.5-.6405-.319l-.1344.2893-11.0742 23.8314h-21.0243l.6268-23.4387.0137-.5133h-.5135-.6405-.3124l-.1369.2807-11.5521 23.6713h-29.712121l32.739221-67.3138z" stroke="#ed5d3d"/></svg>

<svg width="104" height="105" viewBox="0 0 104 105" fill="none" xmlns="http://www.w3.org/2000/svg">
<path d="M63.8234 16.8293L61.2013 46.4924L61.1532 47.0364L61.6994 47.0364L62.3399 47.0364L62.6027 47.0364L62.7517 46.8199C74.6506 29.5366 81.1862 20.6083 84.2383 16.8293L103.5 16.8293L103.5 44.2452L103.5 84.1431L76.7186 84.1431L76.7186 60.5224L76.7186 60.0224L76.2186 60.0224L75.5781 60.0224L75.2591 60.0224L75.1247 60.3117L64.0505 84.1431L43.0262 84.1431L43.653 60.7044L43.6667 60.1911L43.1532 60.1911L42.5127 60.1911L42.2003 60.1911L42.0634 60.4718L30.5113 84.1431L0.799179 84.1431L33.5384 16.8293L63.8234 16.8293Z" stroke="#ED5D3D"/>
</svg>
